X: 24710
T: Macroom Fling, The
R: barndance
M: 4/4
K: Gmajor
|:(3GFE|D2 D>E G>AB>G|A>GB>G A>GE>G|D2 D>E G>AB>d|1 g>ed>B (3ABA:|2 g2 (3edB G2||
(3Bcd|g2 g>e d2 g>e|(3ded B>G A>GE>G|g>f (3gfe d>eg>a|b2 (3gab (3aba g>a|
b>gg>b a>ge>f|g>ed>B A>GE>G|D3 E G>A (3Bcd|g>ed>B G2||

